packages/core/src/svgs/tokens/branded/XPLA.svg

<svg width="24" height="24" viewBox="0 0 24 24" fill="none" xmlns="http://www.w3.org/2000/svg">
<path d="M14.2801 13.1333L13.1534 14.2533L20.8733 21.9801L22 20.8534L14.2801 13.1266V13.1333ZM3.12 2L2 3.12666L9.71995 10.8466L10.8399 9.72663L3.12 2ZM20.8601 2.01333L13.1534 9.7467L14.2734 10.8667L21.9868 3.13333L20.8601 2.01333ZM9.74001 13.1467L2.02666 20.88L3.14667 22L10.8667 14.2667L9.74001 13.1467Z" fill="#00B1FF"/>
</svg>

<svg xmlns="http://www.w3.org/2000/svg" width="24" height="24" fill="none" viewBox="0 0 24 24">
    <path fill="#00B1FF" d="m14.28 13.133-1.127 1.12 7.72 7.727L22 20.853l-7.72-7.726zM3.12 2 2 3.127l7.72 7.72 1.12-1.12zm17.74.013-7.707 7.734 1.12 1.12 7.714-7.734zM9.74 13.147 2.027 20.88 3.147 22l7.72-7.733z"/>
</svg>
